packages/match-logos/mono/svg/eharmony.svg

<svg fill="none" height="36" viewBox="0 0 174 36" width="174" xmlns="http://www.w3.org/2000/svg"><path d="m18 5.4c-1.71-.81-3.42-1.17-5.22-1.17-2.79 0-5.13.45-7.02 1.44-1.89 1.08-3.33 2.43-4.32 4.14-.99 1.71-1.44 3.69-1.44 5.94s.45 4.23 1.44 5.94c.99 1.8 2.43 3.15 4.32 4.14s4.32 1.53 7.02 1.53c2.52 0 4.68-.27 6.3-.72s3.06-1.08 4.23-1.62v-4.86c-3.24 1.53-6.21 2.25-8.82 2.25-1.53 0-2.88-.45-4.05-1.26-1.17-.9-1.98-1.98-2.25-3.33h15.75v-1.62c0-2.79-.54-5.13-1.62-6.93-1.26-1.8-2.61-3.06-4.32-3.87zm-10.08 8.46c0-1.44.45-2.52 1.26-3.42s1.89-1.35 3.24-1.35 2.34.45 3.06 1.26c.72.9 1.08 1.98 1.08 3.42zm41.4-1.35h-18v-12.51h-2.16v26.91h2.16v-12.69h18v12.78h2.07v-27h-2.07zm18.81 11.97v-10.98c0-1.53-.54-2.7-1.53-3.42s-2.34-1.17-3.96-1.17c-1.8 0-3.69.63-5.76 1.89v1.98c1.98-1.53 3.78-2.25 5.4-2.25 2.61 0 3.96 1.17 3.96 3.6v2.25c-3.33.18-5.85.81-7.65 1.89s-2.7 2.61-2.7 4.59c0 1.26.45 2.34 1.35 3.15.9.9 2.07 1.35 3.42 1.35 1.8 0 3.69-.72 5.58-2.16.09.9.18 1.44.36 1.8.18.27.45.45.9.45.72 0 1.98-.63 3.6-1.89v-1.62c-1.35 1.08-2.16 1.62-2.52 1.62-.27-.18-.45-.45-.45-1.08zm-1.89-1.08c-1.71 1.53-3.33 2.34-4.95 2.34-.99 0-1.8-.27-2.52-.81-.63-.54-.99-1.26-.99-2.07 0-1.44.81-2.7 2.43-3.6s3.6-1.35 6.03-1.26zm9.54-9.54-.09-4.68h-1.89v17.82h1.89v-11.16c1.98-3.42 3.96-5.13 5.67-5.13.9 0 2.07.72 3.6 2.07l1.08-1.8c-1.53-1.44-2.88-2.07-4.05-2.07-1.98 0-4.05 1.62-6.21 4.95zm31.59-4.95c-2.43 0-4.5 1.44-6.21 4.23-1.08-2.88-3.06-4.23-5.76-4.23-2.34 0-4.23 1.17-5.67 3.51v-3.15h-1.89v17.73h1.89v-12.42c1.53-2.52 3.33-3.78 5.4-3.78 1.44 0 2.52.54 3.42 1.62.81 1.08 1.26 2.61 1.26 4.59v9.99h1.89v-12.15c.9-1.44 1.71-2.52 2.52-3.15s1.8-.99 2.88-.99c1.44 0 2.61.54 3.42 1.62s1.26 2.61 1.26 4.5v10.17h1.89v-10.89c0-2.16-.54-3.96-1.71-5.22-1.26-1.35-2.7-1.98-4.59-1.98zm19.26 0c-2.61 0-4.77.9-6.48 2.61-1.71 1.8-2.61 3.96-2.61 6.57s.9 4.86 2.61 6.57c1.71 1.8 3.87 2.61 6.48 2.61s4.77-.9 6.48-2.61 2.61-3.96 2.61-6.57-.9-4.86-2.61-6.57c-1.8-1.8-3.96-2.61-6.48-2.61zm4.95 14.4c-1.35 1.44-2.97 2.07-5.04 2.07-1.98 0-3.69-.72-5.04-2.07-1.35-1.44-1.98-3.15-1.98-5.31s.63-3.87 1.98-5.31 3.06-2.07 5.04-2.07 3.69.72 5.04 2.16 1.98 3.15 1.98 5.31c.09 2.07-.63 3.87-1.98 5.22zm16.02-14.4c-2.43 0-4.41 1.17-5.85 3.42h-.09v-3.06h-1.89v17.73h1.89v-12.42c1.53-2.52 3.42-3.78 5.85-3.78 3.24 0 4.86 2.07 4.86 6.12v10.08h1.89v-10.8c0-2.25-.63-4.05-1.8-5.4-1.26-1.26-2.79-1.89-4.86-1.89zm23.31.27-6.21 12.33-6.3-12.33h-1.98l7.47 14.4-6.21 12.42h1.89l13.23-26.82z" fill="#1f304c"/></svg>

<svg width="174" height="36" viewBox="0 0 174 36" fill="none" xmlns="http://www.w3.org/2000/svg">
<path d="M18 5.4C16.29 4.59 14.58 4.23 12.78 4.23C9.99 4.23 7.65 4.68 5.76 5.67C3.87 6.75 2.43 8.1 1.44 9.81C0.45 11.52 0 13.5 0 15.75C0 18 0.45 19.98 1.44 21.69C2.43 23.49 3.87 24.84 5.76 25.83C7.65 26.82 10.08 27.36 12.78 27.36C15.3 27.36 17.46 27.09 19.08 26.64C20.7 26.19 22.14 25.56 23.31 25.02V20.16C20.07 21.69 17.1 22.41 14.49 22.41C12.96 22.41 11.61 21.96 10.44 21.15C9.27 20.25 8.46 19.17 8.19 17.82H23.94V16.2C23.94 13.41 23.4 11.07 22.32 9.27C21.06 7.47 19.71 6.21 18 5.4ZM7.92 13.86C7.92 12.42 8.37 11.34 9.18 10.44C9.99 9.54 11.07 9.09 12.42 9.09C13.77 9.09 14.76 9.54 15.48 10.35C16.2 11.25 16.56 12.33 16.56 13.77L7.92 13.86ZM49.32 12.51H31.32V0H29.16V26.91H31.32V14.22H49.32V27H51.39V0H49.32V12.51ZM68.13 24.48V13.5C68.13 11.97 67.59 10.8 66.6 10.08C65.61 9.36 64.26 8.91 62.64 8.91C60.84 8.91 58.95 9.54 56.88 10.8V12.78C58.86 11.25 60.66 10.53 62.28 10.53C64.89 10.53 66.24 11.7 66.24 14.13V16.38C62.91 16.56 60.39 17.19 58.59 18.27C56.79 19.35 55.89 20.88 55.89 22.86C55.89 24.12 56.34 25.2 57.24 26.01C58.14 26.91 59.31 27.36 60.66 27.36C62.46 27.36 64.35 26.64 66.24 25.2C66.33 26.1 66.42 26.64 66.6 27C66.78 27.27 67.05 27.45 67.5 27.45C68.22 27.45 69.48 26.82 71.1 25.56V23.94C69.75 25.02 68.94 25.56 68.58 25.56C68.31 25.38 68.13 25.11 68.13 24.48ZM66.24 23.4C64.53 24.93 62.91 25.74 61.29 25.74C60.3 25.74 59.49 25.47 58.77 24.93C58.14 24.39 57.78 23.67 57.78 22.86C57.78 21.42 58.59 20.16 60.21 19.26C61.83 18.36 63.81 17.91 66.24 18V23.4ZM75.78 13.86L75.69 9.18H73.8V27H75.69V15.84C77.67 12.42 79.65 10.71 81.36 10.71C82.26 10.71 83.43 11.43 84.96 12.78L86.04 10.98C84.51 9.54 83.16 8.91 81.99 8.91C80.01 8.91 77.94 10.53 75.78 13.86ZM107.37 8.91C104.94 8.91 102.87 10.35 101.16 13.14C100.08 10.26 98.1 8.91 95.4 8.91C93.06 8.91 91.17 10.08 89.73 12.42V9.27H87.84V27H89.73V14.58C91.26 12.06 93.06 10.8 95.13 10.8C96.57 10.8 97.65 11.34 98.55 12.42C99.36 13.5 99.81 15.03 99.81 17.01V27H101.7V14.85C102.6 13.41 103.41 12.33 104.22 11.7C105.03 11.07 106.02 10.71 107.1 10.71C108.54 10.71 109.71 11.25 110.52 12.33C111.33 13.41 111.78 14.94 111.78 16.83V27H113.67V16.11C113.67 13.95 113.13 12.15 111.96 10.89C110.7 9.54 109.26 8.91 107.37 8.91ZM126.63 8.91C124.02 8.91 121.86 9.81 120.15 11.52C118.44 13.32 117.54 15.48 117.54 18.09C117.54 20.7 118.44 22.95 120.15 24.66C121.86 26.46 124.02 27.27 126.63 27.27C129.24 27.27 131.4 26.37 133.11 24.66C134.82 22.95 135.72 20.7 135.72 18.09C135.72 15.48 134.82 13.23 133.11 11.52C131.31 9.72 129.15 8.91 126.63 8.91ZM131.58 23.31C130.23 24.75 128.61 25.38 126.54 25.38C124.56 25.38 122.85 24.66 121.5 23.31C120.15 21.87 119.52 20.16 119.52 18C119.52 15.84 120.15 14.13 121.5 12.69C122.85 11.25 124.56 10.62 126.54 10.62C128.52 10.62 130.23 11.34 131.58 12.78C132.93 14.22 133.56 15.93 133.56 18.09C133.65 20.16 132.93 21.96 131.58 23.31ZM147.6 8.91C145.17 8.91 143.19 10.08 141.75 12.33H141.66V9.27H139.77V27H141.66V14.58C143.19 12.06 145.08 10.8 147.51 10.8C150.75 10.8 152.37 12.87 152.37 16.92V27H154.26V16.2C154.26 13.95 153.63 12.15 152.46 10.8C151.2 9.54 149.67 8.91 147.6 8.91ZM170.91 9.18L164.7 21.51L158.4 9.18H156.42L163.89 23.58L157.68 36H159.57L172.8 9.18H170.91Z" fill="#1F304C"/>
</svg>
